X: 16345
T: Gulf Of Mexico, The
R: reel
M: 4/4
K: Dmajor
DE|:FAAB ~A3F|ABAF EADE|FFBF ~A3B|AFEA D3E|
~F3B ~A3F|ABAF EADE|FdBF ~A3B|AFEA DAde:|
|:~f3a fed2|efed ~B3d|~e3f edBc|dBAF DAde|
~f3b afed|e/f/ged ~B3d|~e3f edBc|dBAF D3E:|

